X: 21917
T: Kitchen Girl, The
R: reel
M: 4/4
K: Dmajor
A/B/|:=ccBB|A/B/A/G/ E A/B/|
=ccBB|^c2cA/B/|=ccBB|A/B/A/G/ E E/F/|GEDB,|A,2A,:|

